X:5
T:Dance of Zalongou
O:Greece
M:7/8
K:Dm
|:D3A4|B2cA4|G3ABAG|F2ED2Z2:|
A3G4|F2EG2EC|D2EF2G2|
ABAG4|F2EG2EC|D5Z2|
|:C^B,CD2D2|D2EC2G2|F2EFGEC|D3D2Z2:|
